!!!COM: Buxtehude, Dietrich
!!!CDT: ~1637///-1707/05/09/
!!!ODT: ~1694///
!!!OTL: Sonata in A Minor, Op. 1, No. 3
!!!OPS: Op. 1
!!!ONM: No. 3
!!!SCA: BuxWV 254
!!!OMD: 2. Allegro
!!!URL: http://www.lysator.liu.se/~tuben/scores
!!!ONB: Johan Tufvessons, ed.
**kern	**kern	**kern
*staff3	*staff2	*staff1
*Icemba	*Iviola	*Ivioln
*clefF4	*clefC3	*clefG2
*k[]	*k[]	*k[]
*met(C)	*met(C)	*met(C)
*M4/4	*M4/4	*M4/4
*MM120	*MM120	*MM120
=22-	=22-	=22-
1r	1r	8r
.	.	8aa\L
.	.	8aa\
.	.	16aa\L
.	.	16gg#\JJ
.	.	16aa\LL
.	.	16a\
.	.	16aa\
.	.	16gg#\JJ
.	.	16aa\LL
.	.	16a\
.	.	16aa\
.	.	16gg#\JJ
=23	=23	=23
8r	1r	16aa\LL
.	.	16a\
16A\LL	.	16cc\
16B\JJ	.	16dd\JJ
8c\L	.	16ee\LL
.	.	16ff\
8B\J	.	16dd\
.	.	16ee\JJ
8A\L	.	16cc\LL
.	.	16dd\
8AA\J	.	16cc\
.	.	16b\JJ
8A\L	.	16cc\LL
.	.	16dd\
16G\L	.	16ee\
16F\JJ	.	16ff\JJ
=24	=24	=24
8E\L	1r	16gg\LL
.	.	16ff\
8C\J	.	16ee\
.	.	16ff\JJ
4E\	.	16gg\LL
.	.	16aa\
.	.	16gg\
.	.	16ee\JJ
[4D\	.	16ff\LL
.	.	16ee\
.	.	16dd\
.	.	16ee\JJ
8D\L]	.	16ff\LL
.	.	16gg\
8G\J	.	16ff\
.	.	16dd\JJ
=25	=25	=25
4C/	1r	16ee\LL
.	.	16ccc\
.	.	16ee\
.	.	16ccc\JJ
8GG/L	.	16dd\LL
.	.	16bb\
8AA/J	.	16cc\
.	.	16aa\JJ
8E\L	.	16b\LL
.	.	16gg\
8A\	.	16a\
.	.	16ff#\JJ
8B\	.	16g\LL
.	.	16ee\
8BB\J	.	16f#\
.	.	16dd#\JJ
=26	=26	=26
8E\	8r	16ee/LL
.	.	16e/JJ
8r	8e\L	8r
8GG/	8e\	8r
8r	16e\L	16gg\LL
.	16d#\JJ	16ff#\JJ
8E\	16e\LL	8gg\L
.	16E\	.
8r	16e\	16gg\L
.	16d#\JJ	16bb\JJ
8GG/	16e\LL	8gg\L
.	16E\	.
8r	16e\	16gg\L
.	16d#\JJ	16ff#\JJ
=27	=27	=27
8E\L	16e/LL	8gg\L
.	16E/	.
8G\	16G/	16bb\L
.	16A/JJ	16aa\JJ
8B\	16B/LL	8gg\L
.	16c/	.
8A\J	16A/	8ccc\J
.	16B/JJ	.
8.G\L	16G/LL	16bb\LL
.	16A/	16ccc\
.	16G/	16bb\
16F#\k	16F#/JJ	16aa\JJ
8.G\	16G/LL	8.bb\L
.	16A/	.
.	16B/	.
16A\Jk	16c/JJ	32aa\LL
.	.	32gg\JJJ
=28	=28	=28
8B\	16d\LL	8ff#\L
.	16c\	.
8r	16B\	16gg\L
.	16c\JJ	16aa\JJ
8r	16d\LL	16bb\LL
.	16e\	16ccc\
8G\	16d\	16bb\
.	16B\JJ	16gg\JJ
8A\	16c/LL	8ee\L
.	16B/	.
8r	16A/	16ff#\L
.	16B/JJ	16gg\JJ
8r	16c/LL	16aa\LL
.	16d/	16bb\
8F#\	16c/	16aa\
.	16A/JJ	16ff#\JJ
=29	=29	=29
8G\L	16B\LL	16dd\LL
.	16g\	16ee\
8A\	16A\	16cc\
.	16f\JJ	16dd\JJ
8G\	16G/LL	16b\LL
.	16e/	16cc\
8F\J	16F/	16a\
.	16d/JJ	16b\JJ
*	*clefF4	*
8E\L	16E\LL	16cc\LL
.	16c\	16ee\
8D\J	16D\	16ff\
.	16B\JJ	16dd\JJ
8C/L	16C\LL	16ee\LL
.	16A\	16ff\
8BB/J	16BB\	16dd\
.	16G#\JJ	16ee\JJ
=30	=30	=30
8AA/L	16A\LL	16cc\LL
.	16AA\JJ	16ff\
8BB/	8r	16ee\
.	.	16dd\JJ
*	*clefC3	*
8C/	8r	16ee\LL
.	.	16gg\
8AA/J	16c/LL	16cc\
.	16B/JJ	16dd\JJ
8r	8c\L	16ee\LL
.	.	16a\
8EE/L	16c\L	16ee\
.	16e\JJ	16g\JJ
8FF/	8c/L	16a\LL
.	.	16aa\
8GG/J	16c/L	16dd\
.	16B/JJ	16ff\JJ
=31	=31	=31
8CC/L	8c\L	8ee\L
16C/L	16e\L	8cc\J
16BB/JJ	16d\JJ	.
8AA/L	8c\L	4r
8D/J	8f\J	.
8C\L	16e\LL	2r
.	16f\	.
16c\L	16e\	.
16B\JJ	16d\JJ	.
8c\L	8.e\L	.
8F#\J	.	.
.	32d\LL	.
.	32c\JJJ	.
=32	=32	=32
8G\	8B\L	16r
.	.	16dd\LL
8r	16c\L	16ee\
.	16d\JJ	16ff\JJ
8E\	16e\LL	16gg\LL
.	16f\	16aa\
8r	16e\	16gg\
.	16c\JJ	16ee\JJ
8F\	8A/L	8cc\L
8r	16B/L	16dd\L
.	16c/JJ	16ee\JJ
8D\	16d\LL	16ff\LL
.	16e\	16gg\
8r	16d\	16ff\
.	16B\JJ	16dd\JJ
=33	=33	=33
8E\	16G/LL	16b/LL
.	16B/	16g/
8r	16G/	16b/
.	16A/JJ	16cc/JJ
8F#\	16F#/LL	16dd\LL
.	16G/	16ee\
8r	16E/	16cc\
.	16F#/JJ	16dd\JJ
8G\L	16G/LL	8b\
.	16B/	.
8A\	16c/	8r
.	16A/JJ	.
8G\	16B/LL	4r
.	16c/	.
8F#\J	16A/	.
.	16B/JJ	.
=34	=34	=34
8E\	8G/L	8r
8r	8E/J	8ee\L
8C/	8r	8ee\
8r	16g\LL	16ee\L
.	16f#\JJ	16dd#\JJ
8GG/	8g\L	16ee\LL
.	.	16e\
8r	16g\L	16ee\
.	16b\JJ	16dd#\JJ
8BB/	8g\L	16ee\LL
.	.	16e\
8r	16g\L	16ee\
.	16f#\JJ	16dd#\JJ
=35	=35	=35
8EE/	8g\L	16ee/LL
.	.	16e/
8r	16b\L	16g/
.	16a\JJ	16a/JJ
8r	8g\L	16b\LL
.	.	16cc\
8AA/	8cc\J	16a\
.	.	16b\JJ
8E\	16b\LL	16g/LL
.	16cc\	16a/
8.EE/	16b\	16g/
.	16a\JJ	16f#/JJ
.	8.b\L	16g/LL
16FF#/LL	.	16a/
16GG/	.	16b/
16AA/JJ	32a\LL	16cc/JJ
.	32g\JJJ	.
=36	=36	=36
8BB/	8f#\L	16dd\LL
.	.	16cc\
8r	16g\L	16b\
.	16a\JJ	16cc\JJ
8GG/	16b\LL	16dd\LL
.	16cc\	16ee\
8r	16b\	16dd\
.	16g\JJ	16b\JJ
8AA/	8e\L	16cc\LL
.	.	16b\
8r	16f#\L	16a\
.	16g\JJ	16b\JJ
8FF#/	16a\LL	16cc\LL
.	16b\	16dd\
8r	16a\	16cc\
.	16f#\JJ	16a\JJ
=37	=37	=37
8GG/	16d\LL	16b\LL
.	16e\	16gg\
8r	16c\	16a\
.	16d\JJ	16ff\JJ
4r	16B/LL	16g\LL
.	16c/	16ee\
.	16A/	16f\
.	16B/JJ	16dd\JJ
2r	16c\LL	16e/LL
*	*clefF4	*
.	16E\	16cc/
.	16F\	16d/
.	16D\JJ	16b/JJ
.	16E\LL	16c/LL
.	16C\	16a/
.	16D\	16B/
.	16E\JJ	16g/JJ
=38	=38	=38
8AA/	8AA\L	16a/LL
.	.	16A/JJ
8r	8A\J	8r
8A\	8A\L	8r
8r	16A\L	16cc\LL
.	16G#\JJ	16b\JJ
8AA/	16A\LL	8cc\L
.	16AA\	.
8r	16A\	16cc\L
.	16G#\JJ	16ee\JJ
8A\	16A\LL	8cc\L
.	16AA\	.
8r	16A\	16cc\L
.	16G#\JJ	16b\JJ
=39	=39	=39
8AA/L	16A\LL	8cc\L
.	16AA\	.
8C/	16C\	16ee\L
.	16D\JJ	16dd\JJ
8E/	16E\LL	8cc\L
.	16F\	.
8D/J	16D\	8ff\J
.	16E\JJ	.
8.C/L	16C/LL	16ee\LL
.	16D/	16ff\
.	16C/	16ee\
16BB/k	16BB/JJ	16dd\JJ
8.C/	16C\LL	8.ee\L
.	16D\	.
.	16E\	.
16D/Jk	16F\JJ	32dd\LL
.	.	32cc\JJJ
=40	=40	=40
8E\	16G\LL	8b\L
.	16F\	.
8r	16E\	16cc\L
.	16F\JJ	16dd\JJ
8r	16G\LL	16ee\LL
.	16A\	16ff\
8C/	16G\	16ee\
.	16E\JJ	16cc\JJ
8D\	16F\LL	8a\L
.	16E\	.
8r	16D\	16b\L
.	16E\JJ	16cc\JJ
8r	16F\LL	16dd\LL
.	16G\	16ee\
8BB/	16F\	16dd\
.	16D\JJ	16b\JJ
=41	=41	=41
8C/L	16E\LL	16g/LL
.	16c\	16a/
8E/	16E\	16g/
.	16c\JJ	16a/JJ
8D/	16D\LL	16f#/LL
.	16B\	16g/
8C/J	16C\	16e/
.	16A\JJ	16f#/JJ
8BB/L	16BB\LL	16g/LL
.	16G\	16b/
8AA/	16AA\	16cc/
.	16F#\JJ	16a/JJ
8GG/	16GG/LL	16b\LL
.	16E/	16cc\
8FF#/J	16FF#/	16a\
.	16D#/JJ	16b\JJ
=42	=42	=42
4EE/	16E/LL	16g\LL
.	16EE/JJ	16bb\
.	8r	16gg\
.	.	16aa\JJ
4r	4r	16bb\LL
.	.	16aa\
.	.	16gg\
.	.	16bb\JJ
8r	16r	4ee\
.	16G\LL	.
8E\L	16E\	.
.	16F\JJ	.
8E\	16G\LL	4r
.	16F\	.
8C\J	16E\	.
.	16G\JJ	.
=43	=43	=43
4c\	4C/	16r
.	.	16gg\LL
.	.	16ee\
.	.	16ff\JJ
4r	4r	16gg\LL
.	.	16ff\
.	.	16ee\
.	.	16gg\JJ
8r	16r	4cc\
.	16E\LL	.
8C/L	16C\	.
.	16D\JJ	.
8C/	16E\LL	4r
.	16D\	.
8AA/J	16C\	.
.	16E\JJ	.
=44	=44	=44
4A\	4AA/	16r
.	.	16ee\LL
.	.	16cc\
.	.	16dd\JJ
4r	4r	16ee\LL
.	.	16dd\
.	.	16cc\
.	.	16ee\JJ
8r	16r	4a/
.	16C/LL	.
8AA/L	16AA/	.
.	16BB-/JJ	.
8AA/	16C/LL	4r
.	16BB-/	.
8FF/J	16AA/	.
.	16C/JJ	.
=45	=45	=45
8.F\L	16FF\LL	16r
.	16A\	16ccc\LL
.	16F\	16aa\
16G\Jk	16G\JJ	16bb-\JJ
8A\L	16A\LL	16ccc\LL
.	16G\	16bb-\
8F\J	16F\	16aa\
.	16A\JJ	16ccc\JJ
8D\L	8D\L	8ff\L
16E\L	16E\L	16gg\L
16F\JJ	16F\JJ	16aa\JJ
8G/L	8G/L	8.ee\L
8GG/J	8GG/J	.
.	.	16dd\Jk
=46	=46	=46
8C/	8C\L	4cc\
8r	8c\J	.
8AA/	8c\L	8r
8r	16c\L	16ee\LL
.	16B\JJ	16dd\JJ
8EE/	16c\LL	8ee\L
.	16C\	.
8r	16c\	16ee\L
.	16B\JJ	16gg\JJ
8GG/	16c\LL	8ee\L
.	16C\	.
8r	16c\	16ee\L
.	16B\JJ	16dd\JJ
=47	=47	=47
8CC/L	16c\LL	8ee\L
.	16C\	.
16C/L	16E\	8cc\J
16D/JJ	16F\JJ	.
8E\L	16G\LL	4r
.	16A\	.
8D\J	16F\	.
.	16G\JJ	.
8C/L	16E\LL	2r
.	16F\	.
8CC/J	16E\	.
.	16D\JJ	.
8C/L	16E/LL	.
.	16C/	.
16BB/L	16BB/	.
16AA/JJ	16AA/JJ	.
=48	=48	=48
8GG/	4GG/	8r
8r	.	8gg\L
8G\	8r	8gg\
8r	16B\LL	16gg\L
.	16A\JJ	16ff#\JJ
8GG/	8B\L	16gg\LL
.	.	16g\
8r	16B\L	16gg\
.	16d\JJ	16ff#\JJ
8G\	8B\L	16gg\LL
.	.	16g\
8r	16B\L	16gg\
.	16A\JJ	16ff#\JJ
=49	=49	=49
8GG\L	8B\L	16gg\LL
.	.	16g\
8G\	8G\	16b\
.	.	16cc\JJ
8F#\	8F#\	16dd\LL
.	.	16ee\
8D\J	8D\J	16cc\
.	.	16dd\JJ
8G/L	8G/L	16b\LL
.	.	16dd\
8GG/J	16GG/L	16b\
.	16AA/JJ	16cc\JJ
8BB/L	16BB/LL	16dd\LL
.	16AA/	16cc\
8GG/J	16GG/	16b\
.	16BB/JJ	16dd\JJ
=50	=50	=50
8EE/L	4EE/	16g/LL
.	.	16b/
8E/	.	16g/
.	.	16a/JJ
8G/	4r	16b/LL
.	.	16a/
8E/J	.	16g/
.	.	16b/JJ
8C/L	16r	16e\LL
.	16E\LL	16gg\
8C/	16C\	16ee\
.	16D\JJ	16ff\JJ
8E/	16E\LL	16gg\LL
.	16D\	16ff\
8C/J	16C\	16ee\
.	16E\JJ	16gg\JJ
=51	=51	=51
8AA\L	4AA/	16cc\LL
.	.	16ee\
8A\	.	16cc\
.	.	16dd\JJ
8c\	4r	16ee\LL
.	.	16dd\
8A\J	.	16cc\
.	.	16ee\JJ
*	*clefC3	*
8F\L	16r	4a/
.	16c/LL	.
8F\	16A/	.
.	16B-/JJ	.
8A\	16c/LL	4r
.	16B-/	.
8F\J	16A/	.
.	16c/JJ	.
=52	=52	=52
8D\	8F/L	8r
8r	16F/L	8aa\L
.	16G/JJ	.
8F\	8A/L	8aa\
8r	16c/L	16aa\L
.	16B/JJ	16gg#\JJ
8C/	8c\L	16aa\LL
.	.	16a\
8r	16c\L	16aa\
.	16e\JJ	16gg#\JJ
8E\	8c/L	16aa\LL
.	.	16a\
8r	16c/L	16aa\
.	16B/JJ	16gg#\JJ
=53	=53	=53
8AA/	8c\L	16aa\LL
.	.	16a\
8r	16e\L	16cc\
.	16d\JJ	16dd\JJ
8r	8c\L	16ee\LL
.	.	16ff\
8D\	8f\J	16dd\
.	.	16ee\JJ
8A\	16e\LL	16cc\LL
.	16f\	16dd\
8.AA/	16e\	16cc\
.	16d\JJ	16b\JJ
.	8.e\L	16cc\LL
16BB/LL	.	16dd\
16C/	.	16ee\
16D/JJ	32d\LL	16ff\JJ
.	32c\JJJ	.
=54	=54	=54
4E\	8B\L	16gg\LL
.	.	16ff\
.	16c\L	16ee\
.	16d\JJ	16ff\JJ
8r	16e\LL	16gg\LL
.	16f\	16aa\
8C/	16e\	16gg\
.	16c\JJ	16ee\JJ
4D\	8A/L	16ff\LL
.	.	16ee\
.	16B/L	16dd\
.	16c/JJ	16ee\JJ
8r	16d\LL	16ff\LL
.	16e\	16gg\
8BB/	16d\	16ff\
.	16B\JJ	16dd\JJ
=55	=55	=55
4C/	8G\L	16ee\LL
.	.	16ccc\
.	16g\L	16ee\
.	16a\JJ	16ccc\JJ
8GG/L	16b\LL	16dd\LL
.	16g\	16bb\
8AA/J	16e\	16cc\
.	16f#\JJ	16aa\JJ
8E\L	16g\LL	16b\LL
*	*clefF4	*
.	16B\	16gg\
8A\J	16c\	16a\
.	16A\JJ	16ff#\JJ
8B\L	8B\L	16g\LL
.	.	16ee\
8BB\J	8BB\J	16f#\
.	.	16dd#\JJ
=56	=56	=56
8EE/	8r	16ee/LL
.	.	16e/JJ
8r	8E\L	8r
8E\	8E\	8r
8r	16E\L	16g/LL
.	16D#\JJ	16f#/JJ
8GG/	16E/LL	8g/L
.	16EE/	.
8r	16E/	16g/L
.	16D#/JJ	16b/JJ
8E\	16E/LL	8g/L
.	16EE/	.
8r	16E/	16g/L
.	16D#/JJ	16f#/JJ
=57	=57	=57
8EE/L	16E/LL	8g/L
.	16EE/	.
8GG/	16GG/	16b/L
.	16AA/JJ	16a/JJ
8BB/	16BB/LL	8g/L
.	16C/	.
8AA/J	16AA/	8cc/J
.	16BB/JJ	.
8GG\L	4GG/	16b\LL
.	.	16dd\
8G\	.	16b\
.	.	16cc\JJ
8B\	4r	16dd\LL
.	.	16cc\
8G\J	.	16b\
.	.	16dd\JJ
=58	=58	=58
8E\L	16r	16g\LL
.	16E\LL	16gg\
8C\	16C\	16ee\
.	16D\JJ	16ff\JJ
8E\	16E\LL	16gg\LL
.	16D\	16ff\
8C\J	16C\	16ee\
.	16E\JJ	16gg\JJ
8AA\L	4AA/	16cc\LL
.	.	16ee\
8A\	.	16cc\
.	.	16dd\JJ
8c\	4r	16ee\LL
.	.	16dd\
8A\J	.	16cc\
.	.	16ee\JJ
=59	=59	=59
8F\L	16r	16a\LL
.	16A\LL	16ccc\
8F\	16F\	16aa\
.	16G\JJ	16bb-\JJ
8A\	16A\LL	16ccc\LL
.	16G\	16bb-\
8F\J	16F\	16aa\
.	16A\JJ	16ccc\JJ
8.D/L	16D\LL	16ff\LL
.	16E\	16gg\
.	16D\	16ff\
16C/Jk	16C\JJ	16ee\JJ
8.BB/L	16BB/LL	16dd\LL
.	16C/	16ee\
.	16BB/	16dd\
16AA/Jk	16AA/JJ	16cc\JJ
=60	=60	=60
4GG#/	8.GG#/L	16b\LL
.	.	16cc\
.	.	16dd\
.	16GG#/Jk	16ee\JJ
8AA/L	16AA/LL	16cc\LL
.	16C/	16ee\
8FF/J	16FF/	16dd\
.	16AA/JJ	16cc\JJ
8EE/L	8EE/L	4.cc\
8DD/J	8DD/J	.
4EE/	4EE/	.
.	.	16b/LL
.	.	16a/JJ
=61	=61	=61
8AA/	8AA\L	4a/
8r	8A\J	.
8A\	8A\L	8r
8r	16A\L	16cc\LL
.	16G#\JJ	16b\JJ
8AA/	16A\LL	8cc\L
.	16AA\	.
8r	16A\	16cc\L
.	16G#\JJ	16ee\JJ
8A\	16A\LL	8cc\L
.	16AA\	.
8r	16A\	16cc\L
.	16G#\JJ	16b\JJ
=62	=62	=62
8AA/L	16A\LL	8cc\L
.	16AA\	.
8C/J	16C\	16ee\L
.	16D\JJ	16dd\JJ
8E\L	16E\LL	8cc\L
.	16F\	.
8D\J	16D\	8ff\J
.	16E\JJ	.
8C\L	16C/LL	8ee\L
.	16D/	.
8E\J	16E/	16cc\L
.	16C/JJ	16b\JJ
8F\L	16F\LL	8a\L
.	16E\	.
8D\J	16F\	8dd\J
.	16D\JJ	.
=63	=63	=63
[4E\	8E\L	8cc/L
*	*clefC3	*
.	16e\L	8g#/
.	16d\JJ	.
8E\L]	8c\L	8a/
8D\J	8f\J	8b/J
8C/L	8e\L	8cc\L
8D/J	16d\L	16b\L
.	16c\JJ	16a\JJ
4E\	8.B/L	8.a/L
.	16B/Jk	16g#/Jk
=64	=64	=64
1AA;	1A;	1a;
==	==	==
*-	*-	*-
!!!ENC: Craig Stuart Sapp
!!!END: 2004/12/15/
